icons/line/user-circle.svg

<svg width="24" height="24" viewBox="0 0 24 24" fill="none" xmlns="http://www.w3.org/2000/svg">
<path fill-rule="evenodd" clip-rule="evenodd" d="M12 22C6.47715 22 2 17.5228 2 12C2 6.47715 6.47715 2 12 2C17.5228 2 22 6.47715 22 12C22 17.5228 17.5228 22 12 22ZM7.5764 18.6668C8.84345 19.5092 10.3644 20 12 20C13.6356 20 15.1565 19.5092 16.4236 18.6668C15.5844 17.0793 13.9173 16 12 16C10.0827 16 8.41559 17.0793 7.5764 18.6668ZM6.03657 17.3328C4.77008 15.9175 4 14.0487 4 12C4 7.58172 7.58172 4 12 4C16.4183 4 20 7.58172 20 12C20 14.0487 19.2299 15.9175 17.9634 17.3328C17.3049 16.2642 16.3668 15.3855 15.2508 14.7991C16.3215 13.8821 17 12.5203 17 11C17 8.23858 14.7614 6 12 6C9.23858 6 7 8.23858 7 11C7 12.5203 7.6785 13.8821 8.74919 14.7991C7.63315 15.3855 6.69509 16.2642 6.03657 17.3328ZM12 14C13.6569 14 15 12.6569 15 11C15 9.34315 13.6569 8 12 8C10.3431 8 9 9.34315 9 11C9 12.6569 10.3431 14 12 14Z" fill="currentColor"/>
</svg>

<svg width="24" height="24" fill="none" xmlns="http://www.w3.org/2000/svg"><path fill-rule="evenodd" clip-rule="evenodd" d="M12 22C6.477 22 2 17.523 2 12S6.477 2 12 2s10 4.477 10 10-4.477 10-10 10zm-4.424-3.333A7.963 7.963 0 0012 20c1.636 0 3.156-.49 4.424-1.333A5 5 0 0012 16a5 5 0 00-4.424 2.667zm-1.54-1.334a8 8 0 1111.927 0 7.034 7.034 0 00-2.712-2.534 5 5 0 10-6.502 0 7.034 7.034 0 00-2.712 2.534zM12 14a3 3 0 100-6 3 3 0 000 6z" fill="currentColor"/></svg>
